X:1
T:Title
L:1/8
Q:1/4=69
M:2/4
K:C
V:1 treble nm="Church Organ, Staff"
V:1
 GE FD | EC cd | GA Bc | E G3 | GG AA | dd- d/B/G | ed AB | c B2 B | GG GG | Bc- c/d/e | AA AA | %11
w: By~A.~H.~Brown * * *|||||||||||
 ^cd- d/e/f | de AB | Gc AB | GF AG | d e3 | ef- f/d/B | de cA | FE AG | G G3 | cB- B/A/G | cd Bc | %22
w: |||||||||||
 fe dc | B .c3 |] %24
w: ||

